svg/menu-icon.svg

<svg xmlns="http://www.w3.org/2000/svg" xmlns:xlink="http://www.w3.org/1999/xlink" preserveAspectRatio="xMidYMid" width="20" height="17" viewBox="0 0 20 17">
  <defs>
    <style>
      .cls-1 {
        fill: #fff;
        fill-rule: evenodd;
      }
    </style>
  </defs>
  <path d="M18.500,10.000 L1.500,10.000 C0.672,10.000 -0.000,9.328 -0.000,8.500 C-0.000,7.672 0.672,7.000 1.500,7.000 L18.500,7.000 C19.328,7.000 20.000,7.672 20.000,8.500 C20.000,9.328 19.328,10.000 18.500,10.000 ZM18.500,3.000 L1.500,3.000 C0.672,3.000 -0.000,2.328 -0.000,1.500 C-0.000,0.672 0.672,0.000 1.500,0.000 L18.500,0.000 C19.328,0.000 20.000,0.672 20.000,1.500 C20.000,2.328 19.328,3.000 18.500,3.000 ZM1.500,14.000 L18.500,14.000 C19.328,14.000 20.000,14.672 20.000,15.500 C20.000,16.328 19.328,17.000 18.500,17.000 L1.500,17.000 C0.672,17.000 -0.000,16.328 -0.000,15.500 C-0.000,14.672 0.672,14.000 1.500,14.000 Z" class="cls-1"/>
</svg>

<svg xmlns="http://www.w3.org/2000/svg" preserveAspectRatio="xMidYMid" width="20" height="17" viewBox="0 0 20 17"><defs/><path d="M18.5 10h-17a1.5 1.5 0 0 1 0-3h17a1.5 1.5 0 0 1 0 3zm0-7h-17a1.5 1.5 0 0 1 0-3h17a1.5 1.5 0 0 1 0 3zm-17 11h17a1.5 1.5 0 0 1 0 3h-17a1.5 1.5 0 0 1 0-3z" class="cls-1"/></svg>
